X:3
T:Duncan Davison. WCa.03
M:C|
L:1/8
Q:1/2=100
S:Wm. Calvert MS, 1812, Leyburn, Yorks.
R:.reel
O:England
A:North Yorkshire
Z:vmp.Chris Partington, May 2003
K:D
(DF)(AB) (AF)(AB)|(DF)(A”_sic”c) (AF)E2|\
(DF)(AB) (AF)(Af)|(ed)(ef)”^tr”d4:|!
|:f>ed>e fgaf|(cA)(eA) (cA)(eA)|\
f>ed>e fgaf|(ed)(ef)”^tr”d4:|

